dist/svg/u1F3EA.svg

<?xml version="1.0" encoding="UTF-8"?><svg id="Layer_1" xmlns="http://www.w3.org/2000/svg" viewBox="0 0 40 40"><rect width="40" height="40" style="fill:none;"/><g><g><path d="M8.00148,35.20832H31.99852c1.11618,0,2.02102-.90484,2.02102-2.02102V17.01913H5.98046v16.16817c0,1.11618,.90484,2.02102,2.02102,2.02102Z" style="fill:#d0d5da;"/><path d="M25.31557,17.01913H14.68443v18.18919h10.63114V17.01913Z" style="fill:#d0d5da;"/><path d="M18.39189,29.39013h3.21621c.71803,0,1.30099,.58295,1.30099,1.30099v4.5172h-5.81818v-4.5172c0-.71803,.58295-1.30099,1.30099-1.30099Z" style="fill:#6b7683;"/></g><path d="M34.30304,4.79168H5.93939c-1.07111,0-1.93939,.86829-1.93939,1.93933v10.66675c0,1.07104,.86829,1.93933,1.93939,1.93933h28.12122c1.07111,0,1.93939-.86829,1.93939-1.93933V6.48858c0-.93713-.75977-1.6969-1.69696-1.6969Z" style="fill:#2f81f9; fill-rule:evenodd;"/><rect x="4" y="10.06445" width="10.5" height="4" style="fill:#93c9ff;"/><rect x="25.5" y="10.06445" width="10.5" height="4" style="fill:#93c9ff;"/><path d="M18,15.06439h4c.55228,0,1-.44772,1-1v-4c0-.55228-.44772-1-1-1h-4c-.55228,0-1,.44772-1,1v4c0,.55228,.44772,1,1,1Z" style="fill:#fff;"/></g></svg>

<svg id="Layer_1" data-name="Layer 1" xmlns="http://www.w3.org/2000/svg" viewBox="0 0 40 40"><defs><style>.cls-1,.cls-5{fill:none;}.cls-2{fill:#d0d5da;}.cls-3{fill:#6b7683;}.cls-4{fill:#2f81f9;fill-rule:evenodd;}.cls-5{stroke:#93c9ff;stroke-miterlimit:10;stroke-width:4px;}.cls-6{fill:#fff;}</style></defs><rect class="cls-1" width="40" height="40"/><path class="cls-2" d="M8,35.208H32a2.021,2.021,0,0,0,2.021-2.021V17.019H5.98V33.187A2.021,2.021,0,0,0,8,35.208Z"/><path class="cls-2" d="M25.316,17.019H14.684V35.208H25.316Z"/><path class="cls-3" d="M18.392,29.39h3.216a1.3,1.3,0,0,1,1.3,1.3v4.517a0,0,0,0,1,0,0H17.091a0,0,0,0,1,0,0V30.691a1.3,1.3,0,0,1,1.3-1.3Z"/><path class="cls-4" d="M34.3,4.792H5.939A1.939,1.939,0,0,0,4,6.731V17.4a1.939,1.939,0,0,0,1.939,1.939H34.061A1.939,1.939,0,0,0,36,17.4V6.489A1.7,1.7,0,0,0,34.3,4.792Z"/><line class="cls-5" x1="14.5" y1="12.064" x2="4" y2="12.064"/><line class="cls-5" x1="36" y1="12.064" x2="25.5" y2="12.064"/><path class="cls-6" d="M18,15.064h4a1,1,0,0,0,1-1v-4a1,1,0,0,0-1-1H18a1,1,0,0,0-1,1v4A1,1,0,0,0,18,15.064Z"/></svg>
